X:1
T:El Niño, 886 D
T:El Niño, 886 D
T:Solomon W. Straub, 1893
T:Public Domain Courtesy of the Cyber Hymnal™
C:Solomon W. Straub, 1893
Z:Public Domain
Z:Courtesy of the Cyber Hymnal™
%%score ( 1 2 ) ( 3 4 )
L:1/8
Q:1/4=83
M:2/4
K:Ab
V:1 treble 
V:2 treble 
V:3 bass 
V:4 bass 
V:1
 E | [CA][CA] [CA] (G/A/) | [EB][EB] [EB]E | [EB][EB] [EB] (A/B/) | [Ec][Ec] [Ec][=Ec] | %5
 [Fc]2 [CA]2 | [=DF]2 [DB]2 | [EB]3 E | [Ed][Ed] [Ed] (c/B/) | [Ec][Ec] [Ec] ([DB]/[CA]/) | %10
 [EB][EB] [EB] (A/G/) | [EA][EA] [EA][_G=A] | [FB]2 [Fd]2 | [Ec]2 [DB]2 | [CA]3 |] %15
V:2
 E | x3 E | x3 E | x3 E | x4 | x4 | x4 | x3 E | x3 E | x4 | x3 E | x4 | x4 | x4 | x3 |] %15
V:3
 G, | [A,,A,][A,,A,] [A,,A,][C,A,] | [E,G,][E,G,] [E,G,]E, | [E,G,][E,G,] [D,G,]G, | %4
 [A,,A,]A, A,[G,B,] | [F,A,]2 [F,A,]2 | [F,B,]2 [F,A,]2 | [E,G,]3 E, | [E,B,][E,B,] [E,B,][E,B,] | %9
 A,A, A,G,/F,/ | [E,G,][E,G,] G, ([C,A,]/[B,,B,]/) | [A,,C][A,,C] [A,,C][C,E] | [D,B,]2 [B,,B,]2 | %13
 [E,A,]2 [E,G,]2 | [A,,A,]3 |] %15
V:4
 G, | x4 | x3 E, | x3 (C,/B,,/) | x A, A, x | x4 | x4 | x3 E, | x4 | A,A, A, (G,/F,/) | %10
 x2 (E,/D,/) x | x4 | x4 | x4 | x3 |] %15

